X:21
T:15a. Chloe's Wild Ride
C:Larry Mallette
R:slide
M:12/8
Q:340
L:1/8
K:Em
"Slide"
EGA B2B E2A B3|e2B d2B cBA BAG|
EGA BAB edB e3|gfe fed ABd e3:|
g2e f2d A2B G2E|gfe f2d ABd e3|
gfe f2d GAB G2E|def efg f2d e3:|





